assets/images/ui-states/repo/timeout.svg

<svg width="87" height="87" viewBox="0 0 87 87" fill="none" xmlns="http://www.w3.org/2000/svg">
<circle cx="43.5983" cy="43.3792" r="43.3792" fill="#23262E"/>
<mask id="mask0" mask-type="alpha" maskUnits="userSpaceOnUse" x="0" y="0" width="87" height="87">
<circle cx="43.4017" cy="43.3792" r="43.3792" fill="#23262E"/>
</mask>
<g mask="url(#mask0)">
<path d="M58.5 55.479C58.5 50.921 54.065 47.212 48.5 47H55H39V47.021C33.435 47.233 29 50.942 29 55.5C29 57.361 29.747 59.076 31 60.476V73C31 75.209 32.791 77 35 77L52.5 76.979C54.709 76.979 56 75.209 56 73V60C57.253 58.6 58.5 57.34 58.5 55.479Z" fill="#D99E82"/>
<path d="M48 60H56V62H48V60Z" fill="#CC927A"/>
<path d="M55 55.5C55 52.039 51.462 49.209 47 49.011C46.835 49.004 39.668 49 39.5 49C34.806 49 31 51.91 31 55.5C31 57.095 31.754 58.553 33 59.684V72C33 73.657 34.343 75 36 75H50C51.657 75 53 73.657 53 72V59.679C54.244 58.548 55 57.093 55 55.5Z" fill="#FFE8B6"/>
<rect x="12.0225" y="64.9287" width="56.8417" height="34.105" rx="3.59" fill="#55565B"/>
<rect x="12.0225" y="64.9287" width="56.8417" height="29.3184" rx="3.59" fill="#939498"/>
<rect x="12.0225" y="69.7153" width="56.8417" height="24.5317" rx="1.19667" fill="#76777B"/>
<rect x="25.1858" y="64.9287" width="43.6784" height="34.105" rx="3.59" fill="#C4C4C4"/>
<rect x="68.0421" y="58.7725" width="1.795" height="8.37667" transform="rotate(24.4484 68.0421 58.7725)" fill="#C4C4C4"/>
<mask id="mask1" mask-type="alpha" maskUnits="userSpaceOnUse" x="65" y="51" width="11" height="11">
<circle cx="70.2211" cy="56.1483" r="5.08584" transform="rotate(24.4484 70.2211 56.1483)" fill="#33CB9A"/>
</mask>
<g mask="url(#mask1)">
<circle cx="70.2211" cy="56.1483" r="5.08584" transform="rotate(24.4484 70.2211 56.1483)" fill="#DA5565"/>
<circle cx="67.3491" cy="54.5138" r="4.78667" transform="rotate(24.4484 67.3491 54.5138)" fill="#B0414F"/>
</g>
</g>
<path d="M21.7597 29.7502C23.4132 27.8108 25.7343 26.9344 28.2358 26.6977C29.8292 26.547 28.7477 27.6737 28.2345 28.768C27.6259 30.0656 26.429 31.9565 26.5643 33.3866C26.2358 33.5664 26.0914 35.3458 26.1462 36.2602C26.2255 37.5839 26.4259 37.6302 27.5728 37.0125C33.0183 34.0791 31.9061 34.6215 36.4753 32.449" stroke="#EEEEEE" stroke-width="3.96121" stroke-linecap="round"/>
<path d="M40.6349 23.6817C42.2573 22.5837 44.1566 22.4099 46.0585 22.7471C47.27 22.9619 46.2378 23.5751 45.6333 24.2807C44.9166 25.1174 43.6424 26.2732 43.4496 27.3604C43.1693 27.4263 42.6977 28.7151 42.5509 29.4038C42.3385 30.4008 42.4775 30.4762 43.4538 30.2535C48.0894 29.1959 47.1543 29.3699 50.9847 28.6965" stroke="#EEEEEE" stroke-width="3.04503" stroke-linecap="round"/>
<path d="M57.4819 23.8858C58.9905 23.7753 60.3286 24.39 61.4717 25.3477C62.1999 25.9578 61.2731 25.9709 60.5969 26.2105C59.7951 26.4947 58.4975 26.7778 57.95 27.4313C57.737 27.3676 56.9253 28.0487 56.562 28.4532C56.0361 29.0387 56.1001 29.1426 56.8393 29.3693C60.349 30.4457 59.6562 30.2022 62.4791 31.2257" stroke="#EEEEEE" stroke-width="2.35103" stroke-linecap="round"/>
</svg>

<svg xmlns="http://www.w3.org/2000/svg" fill="none" width="87" height="87" viewBox="0 0 87 87"><circle cx="43.598" cy="43.379" r="43.379" fill="#23262E"/><mask id="a" width="87" height="87" x="0" y="0" mask-type="alpha" maskUnits="userSpaceOnUse"><circle cx="43.402" cy="43.379" r="43.379" fill="#23262E"/></mask><g mask="url(#a)"><path fill="#D99E82" d="M58.5 55.479c0-4.558-4.435-8.267-10-8.479H55 39v.021c-5.565.212-10 3.921-10 8.479 0 1.861.747 3.576 2 4.976V73a4 4 0 0 0 4 4l17.5-.021c2.209 0 3.5-1.77 3.5-3.979V60c1.253-1.4 2.5-2.66 2.5-4.521Z"/><path fill="#CC927A" d="M48 60h8v2h-8v-2Z"/><path fill="#FFE8B6" d="M55 55.5c0-3.461-3.538-6.291-8-6.489-.165-.007-7.332-.011-7.5-.011-4.694 0-8.5 2.91-8.5 6.5 0 1.595.754 3.053 2 4.184V72a3 3 0 0 0 3 3h14a3 3 0 0 0 3-3V59.679c1.244-1.131 2-2.586 2-4.179Z"/><rect width="56.842" height="34.105" x="12.023" y="64.929" fill="#55565B" rx="3.59"/><rect width="56.842" height="29.318" x="12.023" y="64.929" fill="#939498" rx="3.59"/><rect width="56.842" height="24.532" x="12.023" y="69.715" fill="#76777B" rx="1.197"/><rect width="43.678" height="34.105" x="25.186" y="64.929" fill="#C4C4C4" rx="3.59"/><path fill="#C4C4C4" d="m68.042 58.773 1.634.743-3.467 7.626-1.634-.743z"/><mask id="b" width="11" height="11" x="65" y="51" mask-type="alpha" maskUnits="userSpaceOnUse"><circle cx="70.221" cy="56.148" r="5.086" fill="#33CB9A" transform="rotate(24.448 70.221 56.148)"/></mask><g mask="url(#b)"><circle cx="70.221" cy="56.148" r="5.086" fill="#DA5565" transform="rotate(24.448 70.221 56.148)"/><circle cx="67.349" cy="54.514" r="4.787" fill="#B0414F" transform="rotate(24.448 67.35 54.514)"/></g></g><path stroke="#EEE" stroke-linecap="round" stroke-width="3.961" d="M21.76 29.75c1.653-1.94 3.974-2.816 6.476-3.052 1.593-.151.512.976-.002 2.07-.608 1.298-1.805 3.188-1.67 4.619-.328.18-.473 1.959-.418 2.873.08 1.324.28 1.37 1.427.753 5.445-2.934 4.333-2.392 8.902-4.564"/><path stroke="#EEE" stroke-linecap="round" stroke-width="3.045" d="M40.635 23.682c1.622-1.098 3.522-1.272 5.424-.935 1.211.215.179.828-.426 1.534-.716.836-1.99 1.992-2.183 3.08-.28.065-.752 1.354-.9 2.043-.211.997-.072 1.072.904.85 4.635-1.058 3.7-.884 7.53-1.558"/><path stroke="#EEE" stroke-linecap="round" stroke-width="2.351" d="M57.482 23.886c1.508-.11 2.847.504 3.99 1.462.728.61-.199.623-.875.863-.802.284-2.1.567-2.647 1.22-.213-.063-1.025.618-1.388 1.022-.526.586-.462.69.277.916 3.51 1.077 2.817.833 5.64 1.857"/></svg>
